src/pos-icons/folder-download.svg

<svg height="24" viewBox="0 0 24 24" width="24" xmlns="http://www.w3.org/2000/svg"><path d="m20 6a2 2 0 0 1 2 2v10a2 2 0 0 1 -2 2h-16c-1.11 0-2-.9-2-2v-12c0-1.11.89-2 2-2h6l2 2zm-.75 7h-3.25v-4h-2v4h-3.25l4.25 4.25"/></svg>

<?xml version="1.0" encoding="UTF-8"?><!DOCTYPE svg PUBLIC "-//W3C//DTD SVG 1.1//EN" "http://www.w3.org/Graphics/SVG/1.1/DTD/svg11.dtd"><svg xmlns="http://www.w3.org/2000/svg" xmlns:xlink="http://www.w3.org/1999/xlink" version="1.1" id="mdi-folder-download" width="24" height="24" viewBox="0 0 24 24"><path d="M20,6A2,2 0 0,1 22,8V18A2,2 0 0,1 20,20H4C2.89,20 2,19.1 2,18V6C2,4.89 2.89,4 4,4H10L12,6H20M19.25,13H16V9H14V13H10.75L15,17.25" /></svg>
